assets/lut/legal_to_full_resolve.cube
# Legal to full scaling
# Created by Attila Bakos, colorizer.net

LUT_1D_SIZE 6
LUT_1D_INPUT_RANGE 0 1

-0.073059361 -0.073059361 -0.073059361
0.160502283 0.160502283 0.160502283
0.394063927 0.394063927 0.394063927
0.627625571 0.627625571 0.627625571
0.861187215 0.861187215 0.861187215
1.094748858 1.094748858 1.094748858